assets/img/icons/workspace.svg

<svg fill="none" height="25" viewBox="0 0 25 25" width="25" xmlns="http://www.w3.org/2000/svg" xmlns:xlink="http://www.w3.org/1999/xlink"><linearGradient id="a" gradientUnits="userSpaceOnUse" x1="2.56662" x2="9.33788" y1="21.7712" y2="22.3637"><stop offset="0" stop-color="#4c98ed"/><stop offset="1" stop-color="#e5a7de"/></linearGradient><path d="m7.44812 14.1704 3.38538 3.4073-5.78945 5.7522-3.38536-3.4073z" fill="url(#a)"/><path clip-rule="evenodd" d="m16.0629 3.12979c-3.3222 0-6.0154 2.69317-6.0154 6.01538 0 .89833.1964 1.74863.5478 2.51203l.2527.549-7.28192 6.2367c-.93965.8048-1.0091 2.2341-.1519 3.1262.85505.8899 2.28325.8749 3.11943-.0327l6.56399-7.1246.5244.2331c.745.3312 1.5703.5157 2.4409.5157 3.3222 0 6.0154-2.6932 6.0154-6.01543 0-.33157-.0268-.65654-.0782-.97299l-2.6114 2.61142c-.4065.4065-.9827.5944-1.5507.5056l-2.0391-.3186c-.7732-.1208-1.3797-.7274-1.5005-1.50054l-.3186-2.03913c-.0888-.56797.0991-1.14417.5056-1.55067l2.6545-2.65448c-.3491-.06304-.709-.09599-1.077-.09599zm-7.61538 6.01538c0-4.20586 3.40948-7.61538 7.61538-7.61538 1.0246 0 2.0038.20276 2.8982.57109l1.1095.45693-4.4538 4.45382c-.0452.04517-.0661.10919-.0562.1723l.3186 2.03912c.0134.08591.0808.15331.1667.16673l2.0392.31861c.0631.00986.1271-.01101.1722-.05618l4.4408-4.44079.4483 1.13263c.3435.86807.5319 1.81356.5319 2.80112 0 4.20583-3.4095 7.61543-7.6154 7.61543-.8934 0-1.7523-.1542-2.5504-.4378l-5.80217 6.2977c-1.46086 1.5856-3.95602 1.6118-5.44985.0572-1.494381-1.5552-1.373306-4.047.26481-5.45l6.38344-5.4672c-.29852-.8163-.46121-1.6976-.46121-2.61533z" fill="#2e3c47" fill-rule="evenodd"/></svg>

<svg width="25" height="25" viewBox="0 0 25 25" fill="none" xmlns="http://www.w3.org/2000/svg">
<path d="M7.44812 14.1704L10.8335 17.5777L5.04405 23.3299L1.65869 19.9226L7.44812 14.1704Z" fill="url(#paint0_linear_5023_30304)"/>
<path fill-rule="evenodd" clip-rule="evenodd" d="M16.0629 3.12979C12.7407 3.12979 10.0475 5.82296 10.0475 9.14517C10.0475 10.0435 10.2439 10.8938 10.5953 11.6572L10.848 12.2062L3.56608 18.4429C2.62643 19.2477 2.55698 20.677 3.41418 21.5691C4.26923 22.459 5.69743 22.444 6.53361 21.5364L13.0976 14.4118L13.622 14.6449C14.367 14.9761 15.1923 15.1606 16.0629 15.1606C19.3851 15.1606 22.0783 12.4674 22.0783 9.14517C22.0783 8.8136 22.0515 8.48863 22.0001 8.17218L19.3887 10.7836C18.9822 11.1901 18.406 11.378 17.838 11.2892L15.7989 10.9706C15.0257 10.8498 14.4192 10.2432 14.2984 9.47006L13.9798 7.43093C13.891 6.86296 14.0789 6.28676 14.4854 5.88026L17.1399 3.22578C16.7908 3.16274 16.4309 3.12979 16.0629 3.12979ZM8.44752 9.14517C8.44752 4.93931 11.857 1.52979 16.0629 1.52979C17.0875 1.52979 18.0667 1.73255 18.9611 2.10088L20.0706 2.55781L15.6168 7.01163C15.5716 7.0568 15.5507 7.12082 15.5606 7.18393L15.8792 9.22305C15.8926 9.30896 15.96 9.37636 16.0459 9.38978L18.0851 9.70839C18.1482 9.71825 18.2122 9.69738 18.2573 9.65221L22.6981 5.21142L23.1464 6.34405C23.4899 7.21212 23.6783 8.15761 23.6783 9.14517C23.6783 13.351 20.2688 16.7606 16.0629 16.7606C15.1695 16.7606 14.3106 16.6064 13.5125 16.3228L7.71033 22.6205C6.24947 24.2061 3.75431 24.2323 2.26048 22.6777C0.766099 21.1225 0.887174 18.6307 2.52529 17.2277L8.90873 11.7605C8.61021 10.9442 8.44752 10.0629 8.44752 9.14517Z" fill="#2E3C47"/>
<defs>
<linearGradient id="paint0_linear_5023_30304" x1="2.56662" y1="21.7712" x2="9.33788" y2="22.3637" gradientUnits="userSpaceOnUse">
<stop stop-color="#4C98ED"/>
<stop offset="1" stop-color="#E5A7DE"/>
</linearGradient>
</defs>
</svg>
